X:1
T: Hornpipe
P:Kerr's Caledonian Page 24
R:Reel
Q: 232
K:G
M:4/4
L:1/8
|:ga|bg dB GB dg|fe cA E2 fe|dc AF Dc BA|GB cd ef ga|
bg dB GB dg|fe cA E2 fe|dc AF Dc BA|G2 g2 G2 g2|
fe ^cA ^GA Bc|de fg ^ga ba|ag e^c Ag fe|fd AF D2 g2|
fe ^cA ^GA Bc|de fg ^ga ba|ag e^c Ag fe|d2 d2 d2:|
